img/header/header-case.svg

<svg width="32" height="32" viewBox="0 0 32 32" fill="none" xmlns="http://www.w3.org/2000/svg">
<path d="M31.3975 9.2041C31.3975 7.22461 29.7876 5.61426 27.8086 5.61426H24.1274V5.13379C24.1274 2.5791 22.0488 0.5 19.4936 0.5H12.5063C9.95117 0.5 7.87256 2.5791 7.87256 5.13379V5.61426H4.19141C2.21241 5.61426 0.602539 7.22461 0.602539 9.2041V10.831C0.602539 12.9765 1.37488 14.9437 2.65381 16.4736V25.8213C2.65381 28.9521 5.20117 31.5 8.33252 31.5H23.6675C26.7988 31.5 29.3462 28.9521 29.3462 25.8213V16.4736C30.6251 14.9437 31.3975 12.9765 31.3975 10.831V9.2041ZM10.8726 5.13379C10.8726 4.2334 11.6055 3.5 12.5063 3.5H19.4936C20.3945 3.5 21.1274 4.2334 21.1274 5.13379V5.61426H10.8726V5.13379ZM3.60254 9.2041C3.60254 8.8789 3.8667 8.61426 4.19141 8.61426H27.8086C28.1333 8.61426 28.3975 8.87891 28.3975 9.2041V10.831C28.3975 12.3829 27.7825 13.7911 26.7883 14.8346C26.7849 14.8379 26.782 14.8418 26.7786 14.8452C25.7199 15.9509 24.2334 16.6436 22.5855 16.6436H21.8462V16.2334C21.8462 15.4053 21.1748 14.7334 20.3462 14.7334C19.5176 14.7334 18.8462 15.4053 18.8462 16.2334V16.6436H13.1538V16.2334C13.1538 15.4053 12.4824 14.7334 11.6538 14.7334C10.8252 14.7334 10.1538 15.4053 10.1538 16.2334V16.6436H9.41455C7.76666 16.6436 6.28009 15.9509 5.22137 14.8452C5.21801 14.8418 5.21508 14.838 5.21173 14.8346C4.21747 13.7911 3.60254 12.3829 3.60254 10.8311V9.2041ZM23.6675 28.5H8.33252C6.85547 28.5 5.65381 27.2978 5.65381 25.8213V18.7888C6.79627 19.3311 8.06812 19.6436 9.41455 19.6436H10.1538V20.0537C10.1538 20.8819 10.8252 21.5537 11.6538 21.5537C12.4824 21.5537 13.1538 20.8818 13.1538 20.0537V19.6436H18.8462V20.0537C18.8462 20.8819 19.5176 21.5537 20.3462 21.5537C21.1748 21.5537 21.8462 20.8818 21.8462 20.0537V19.6436H22.5854C23.9319 19.6436 25.2037 19.3311 26.3462 18.7888V25.8213C26.3462 27.2978 25.1445 28.5 23.6675 28.5Z" fill="#F4876B"/>
</svg>

<svg width="32" height="32" fill="none" xmlns="http://www.w3.org/2000/svg"><path d="M31.398 9.204c0-1.98-1.61-3.59-3.59-3.59h-3.68v-.48A4.64 4.64 0 0019.493.5h-6.988a4.64 4.64 0 00-4.633 4.634v.48H4.19a3.593 3.593 0 00-3.588 3.59v1.627a8.77 8.77 0 002.05 5.643v9.347a5.685 5.685 0 005.68 5.679h15.335a5.685 5.685 0 005.678-5.679v-9.347a8.77 8.77 0 002.052-5.643V9.204zm-20.525-4.07c0-.9.732-1.634 1.633-1.634h6.988c.9 0 1.633.733 1.633 1.634v.48H10.873v-.48zm-7.27 4.07a.59.59 0 01.588-.59H27.81a.59.59 0 01.588.59v1.627c0 1.552-.614 2.96-1.609 4.004l-.01.01a5.79 5.79 0 01-4.192 1.799h-.74v-.41a1.5 1.5 0 00-3 0v.41h-5.692v-.41a1.5 1.5 0 00-3 0v.41h-.74a5.79 5.79 0 01-4.193-1.799l-.01-.01a5.787 5.787 0 01-1.608-4.004V9.204zM23.667 28.5H8.333a2.682 2.682 0 01-2.68-2.679V18.79a8.743 8.743 0 003.762.855h.739v.41a1.5 1.5 0 003 0v-.41h5.692v.41a1.5 1.5 0 003 0v-.41h.74a8.743 8.743 0 003.76-.855v7.032a2.682 2.682 0 01-2.678 2.679z" fill="#F4876B"/></svg>
